src/assets/images/guideActive.svg

<svg fill="none" height="40" viewBox="0 0 40 40" width="40" xmlns="http://www.w3.org/2000/svg"><rect fill="#716df7" fill-opacity=".1" height="40" rx="8" width="40"/><path d="m10.0332 28.723c-.03473-.0212-.07778-.049-.13696-.0878-.5468-.3668-.89624-.9648-.89624-1.6352v-14c0-1.104.89603-2 2-2h5c1.104 0 2 .896 2 2v1h1 8c1.104 0 2 .896 2 2v1h-13.375c-.5876 0-1.1751.2838-1.5846.5541-.3728.2461-.7952.6113-1.0521 1.0541-.0012.0016-.0024.0032-.0037.0049-.0454.0604-.1002.1471-.1418.2601l-3.0925 8.3092-.0628.1688v.0326c-.04174.1302-.07175.2681-.07736.411-.00472.1206.00725.2597.05513.4049.03671.1114.08831.2004.11338.24zm3.1824-10.3336-.0029.0021c.0023-.0017.0043-.0031.0029-.0021zm16.4049 9.0293.0592-.0592c-.5041.9878-1.5691 1.6405-2.7109 1.6405.5833 0 1.1763-.2805 1.5916-.5485.3688-.2381.7961-.5948 1.0601-1.0328zm3.2053-9.8929c.0154.023.0299.0472.0434.0726-.0243-.0425-.041-.0651-.0371-.0594-.0506-.0757-.1078-.1418-.1703-.1993.0644.0565.1186.1179.1616.1826z" fill="#eee" stroke="#4e47db" stroke-width="2"/><path d="m12.5 11.5-3 .5v8.5l.5 3 1-1.5.5-2 1.5-2 3-1 12.5-.5-.5-1-.5-.5-2-.5-4-.5h-3.5l-.5-1.5-1-.5-2-.5z" fill="#4e47db"/></svg>

<svg width="40" height="40" viewBox="0 0 40 40" fill="none" xmlns="http://www.w3.org/2000/svg">
<rect width="40" height="40" rx="8" fill="#716DF7" fill-opacity="0.1"/>
<path d="M10.0332 28.723C9.99847 28.7018 9.95542 28.674 9.89624 28.6352C9.34944 28.2684 9 27.6704 9 27V13C9 11.896 9.89603 11 11 11H16C17.104 11 18 11.896 18 13V14H19H27C28.104 14 29 14.896 29 16V17H15.625C15.0374 17 14.4499 17.2838 14.0404 17.5541C13.6676 17.8002 13.2452 18.1654 12.9883 18.6082C12.9871 18.6098 12.9859 18.6114 12.9846 18.6131C12.9392 18.6735 12.8844 18.7602 12.8428 18.8732L9.7503 27.1824L9.6875 27.3512V27.3838C9.64576 27.514 9.61575 27.6519 9.61014 27.7948C9.60542 27.9154 9.61739 28.0545 9.66527 28.1997C9.70198 28.3111 9.75358 28.4001 9.77865 28.4397L10.0332 28.723ZM13.2156 18.3894L13.2127 18.3915C13.215 18.3898 13.217 18.3884 13.2156 18.3894ZM29.6205 27.4187L29.6797 27.3595C29.1756 28.3473 28.1106 29 26.9688 29C27.5521 29 28.1451 28.7195 28.5604 28.4515C28.9292 28.2134 29.3565 27.8567 29.6205 27.4187ZM32.8258 17.5258C32.8412 17.5488 32.8557 17.573 32.8692 17.5984C32.8449 17.5559 32.8282 17.5333 32.8321 17.539C32.7815 17.4633 32.7243 17.3972 32.6618 17.3397C32.7262 17.3962 32.7804 17.4576 32.8234 17.5223L32.8258 17.5258Z" fill="#EEEEEE" stroke="#4E47DB" stroke-width="2"/>
<path d="M12.5 11.5L9.5 12V20.5L10 23.5L11 22L11.5 20L13 18L16 17L28.5 16.5L28 15.5L27.5 15L25.5 14.5L21.5 14H18L17.5 12.5L16.5 12L14.5 11.5H12.5Z" fill="#4E47DB"/>
</svg>
